public/library/opbnb-text-light.svg

<svg xmlns="http://www.w3.org/2000/svg" width="379" height="122" fill="none" viewBox="0 0 379 122"><path fill="#414549" d="M158.97 103.608h-7.86l-1.26 3.72h-5.37l7.62-21.06h5.94l7.62 21.06h-5.43zm-1.32-3.96-2.61-7.71-2.58 7.71zM181.957 107.538q-2.31 0-4.14-.75t-2.94-2.22q-1.08-1.47-1.14-3.54h5.46q.12 1.17.81 1.8.69.6 1.8.6 1.14 0 1.8-.51.66-.54.66-1.47 0-.78-.54-1.29-.51-.51-1.29-.84-.75-.33-2.16-.75-2.04-.63-3.33-1.26t-2.22-1.86-.93-3.21q0-2.94 2.13-4.59 2.13-1.68 5.55-1.68 3.48 0 5.61 1.68 2.13 1.65 2.28 4.62h-5.55q-.06-1.02-.75-1.59-.69-.6-1.77-.6-.93 0-1.5.51-.57.48-.57 1.41 0 1.02.96 1.59t3 1.23q2.04.69 3.3 1.32 1.29.63 2.22 1.83t.93 3.09q0 1.8-.93 3.27-.9 1.47-2.64 2.34t-4.11.87M191.774 98.958q0-2.61 1.05-4.56 1.08-1.95 2.97-3 1.92-1.05 4.38-1.05 3.15 0 5.25 1.65 2.13 1.65 2.79 4.65h-5.46q-.69-1.92-2.67-1.92-1.41 0-2.25 1.11-.84 1.08-.84 3.12t.84 3.15q.84 1.08 2.25 1.08 1.98 0 2.67-1.92h5.46q-.66 2.94-2.79 4.62t-5.25 1.68q-2.46 0-4.38-1.05-1.89-1.05-2.97-3-1.05-1.95-1.05-4.56M209.938 98.928q0-2.58.96-4.53.99-1.95 2.67-3t3.75-1.05q1.77 0 3.09.72 1.35.72 2.07 1.89v-2.37h5.13v16.74h-5.13v-2.37q-.75 1.17-2.1 1.89-1.32.72-3.09.72-2.04 0-3.72-1.05-1.68-1.08-2.67-3.03-.96-1.98-.96-4.56m12.54.03q0-1.92-1.08-3.03-1.05-1.11-2.58-1.11t-2.61 1.11q-1.05 1.08-1.05 3t1.05 3.06q1.08 1.11 2.61 1.11t2.58-1.11q1.08-1.11 1.08-3.03M241.519 90.408q2.94 0 4.68 1.92 1.77 1.89 1.77 5.22v9.78h-5.1v-9.09q0-1.68-.87-2.61t-2.34-.93-2.34.93-.87 2.61v9.09h-5.13v-16.74h5.13v2.22q.78-1.11 2.1-1.74 1.32-.66 2.97-.66M267.852 107.538q-2.97 0-5.46-1.38-2.46-1.38-3.93-3.84-1.44-2.49-1.44-5.58t1.44-5.55q1.47-2.46 3.93-3.84 2.49-1.38 5.46-1.38t5.43 1.38q2.49 1.38 3.9 3.84 1.44 2.46 1.44 5.55t-1.44 5.58a10.27 10.27 0 0 1-3.9 3.84q-2.46 1.38-5.43 1.38m0-4.68q2.52 0 4.02-1.68 1.53-1.68 1.53-4.44 0-2.79-1.53-4.44-1.5-1.68-4.02-1.68-2.55 0-4.08 1.65-1.5 1.65-1.5 4.47 0 2.79 1.5 4.47 1.53 1.65 4.08 1.65M286.606 93.378q.9-1.38 2.25-2.16 1.35-.81 3-.81v5.43h-1.41q-1.92 0-2.88.84-.96.81-.96 2.88v7.77h-5.13v-16.74h5.13zM296.888 88.848q-1.35 0-2.22-.78-.84-.81-.84-1.98 0-1.2.84-1.98.87-.81 2.22-.81 1.32 0 2.16.81.87.78.87 1.98 0 1.17-.87 1.98-.84.78-2.16.78m2.55 1.74v16.74h-5.13v-16.74zM309.515 90.348q1.77 0 3.09.72 1.35.72 2.07 1.89v-2.37h5.13v16.71q0 2.31-.93 4.17-.9 1.89-2.79 3-1.86 1.11-4.65 1.11-3.72 0-6.03-1.77-2.31-1.74-2.64-4.74h5.07q.24.96 1.14 1.5.9.57 2.22.57 1.59 0 2.52-.93.96-.9.96-2.91v-2.37q-.75 1.17-2.07 1.92-1.32.72-3.09.72-2.07 0-3.75-1.05-1.68-1.08-2.67-3.03-.96-1.98-.96-4.56t.96-4.53q.99-1.95 2.67-3t3.75-1.05m5.16 8.61q0-1.92-1.08-3.03-1.05-1.11-2.58-1.11t-2.61 1.11q-1.05 1.08-1.05 3t1.05 3.06q1.08 1.11 2.61 1.11t2.58-1.11q1.08-1.11 1.08-3.03M326.097 88.848q-1.35 0-2.22-.78-.84-.81-.84-1.98 0-1.2.84-1.98.87-.81 2.22-.81 1.32 0 2.16.81.87.78.87 1.98 0 1.17-.87 1.98-.84.78-2.16.78m2.55 1.74v16.74h-5.13v-16.74zM342.564 90.408q2.94 0 4.68 1.92 1.77 1.89 1.77 5.22v9.78h-5.1v-9.09q0-1.68-.87-2.61t-2.34-.93-2.34.93-.87 2.61v9.09h-5.13v-16.74h5.13v2.22q.78-1.11 2.1-1.74 1.32-.66 2.97-.66M351.559 98.928q0-2.58.96-4.53.99-1.95 2.67-3t3.75-1.05q1.77 0 3.09.72 1.35.72 2.07 1.89v-2.37h5.13v16.74h-5.13v-2.37q-.75 1.17-2.1 1.89-1.32.72-3.09.72-2.04 0-3.72-1.05-1.68-1.08-2.67-3.03-.96-1.98-.96-4.56m12.54.03q0-1.92-1.08-3.03-1.05-1.11-2.58-1.11t-2.61 1.11q-1.05 1.08-1.05 3t1.05 3.06q1.08 1.11 2.61 1.11t2.58-1.11q1.08-1.11 1.08-3.03M378.071 85.128v22.2h-5.13v-22.2z"/><path fill="#000" d="M162.679 56.976q-5.76 0-10.368-2.52-4.608-2.592-7.272-7.272-2.592-4.68-2.592-10.8t2.664-10.8q2.736-4.68 7.416-7.2 4.68-2.592 10.44-2.592t10.44 2.592q4.68 2.52 7.344 7.2 2.736 4.68 2.736 10.8t-2.808 10.8q-2.736 4.68-7.488 7.272-4.68 2.52-10.512 2.52m0-8.784a10.5 10.5 0 0 0 5.112-1.296q2.448-1.368 3.888-4.032t1.44-6.48q0-5.688-3.024-8.712-2.952-3.096-7.272-3.096t-7.272 3.096q-2.88 3.024-2.88 8.712t2.808 8.784q2.88 3.024 7.2 3.024M200.961 22.2q1.944-2.736 5.328-4.536 3.456-1.872 7.848-1.872 5.112 0 9.216 2.52 4.176 2.52 6.552 7.2 2.448 4.608 2.448 10.728t-2.448 10.872q-2.376 4.68-6.552 7.272-4.104 2.592-9.216 2.592-4.392 0-7.776-1.8-3.312-1.8-5.4-4.536v24.696h-10.08V16.44h10.08zm21.096 14.04q0-3.6-1.512-6.192-1.44-2.664-3.888-4.032-2.376-1.368-5.184-1.368-2.736 0-5.184 1.44-2.376 1.368-3.888 4.032-1.44 2.664-1.44 6.264t1.44 6.264q1.512 2.664 3.888 4.104 2.448 1.368 5.184 1.368 2.808 0 5.184-1.44 2.448-1.44 3.888-4.104 1.512-2.664 1.512-6.336M268.19 30.552q4.248.792 6.984 4.248t2.736 7.92q0 4.032-2.016 7.128-1.944 3.024-5.688 4.752t-8.856 1.728h-21.672V6.072h20.736q5.112 0 8.784 1.656 3.744 1.656 5.616 4.608 1.944 2.952 1.944 6.696 0 4.392-2.376 7.344-2.304 2.952-6.192 4.176m-18.432-3.744h9.216q3.6 0 5.544-1.584 1.944-1.656 1.944-4.68t-1.944-4.68-5.544-1.656h-9.216zM259.91 48.12q3.672 0 5.688-1.728 2.088-1.728 2.088-4.896 0-3.24-2.16-5.04-2.16-1.872-5.832-1.872h-9.936V48.12zM328.928 56.328h-10.08L296.024 21.84v34.488h-10.08V6h10.08l22.824 34.56V6h10.08zM367.401 30.552q4.248.792 6.984 4.248t2.736 7.92q0 4.032-2.016 7.128-1.944 3.024-5.688 4.752t-8.856 1.728h-21.672V6.072h20.736q5.112 0 8.784 1.656 3.744 1.656 5.616 4.608 1.944 2.952 1.944 6.696 0 4.392-2.376 7.344-2.304 2.952-6.192 4.176m-18.432-3.744h9.216q3.6 0 5.544-1.584 1.944-1.656 1.944-4.68t-1.944-4.68-5.544-1.656h-9.216zm10.152 21.312q3.672 0 5.688-1.728 2.088-1.728 2.088-4.896 0-3.24-2.16-5.04-2.16-1.872-5.832-1.872h-9.936V48.12z"/><path fill="#12161c" d="M25.223 57.583a5.143 5.143 0 0 1 5.168-5.143l8.568.028a5.15 5.15 0 0 1 5.15 5.151v32.4c.966-.286 2.2-.591 3.56-.911a4.29 4.29 0 0 0 3.309-4.177V44.744a5.15 5.15 0 0 1 5.15-5.152h8.595a5.15 5.15 0 0 1 5.15 5.152v37.3s2.15-.87 4.244-1.754a4.3 4.3 0 0 0 2.625-3.957V31.866a5.15 5.15 0 0 1 5.15-5.151h8.585a5.15 5.15 0 0 1 5.146 5.151v36.617c7.443-5.394 14.986-11.882 20.972-19.683a8.652 8.652 0 0 0 1.316-8.072 60.64 60.64 0 0 0-33.43-35.843A60.636 60.636 0 0 0 8.056 90.836a7.67 7.67 0 0 0 7.316 3.79c1.624-.143 3.646-.345 6.05-.627a4.29 4.29 0 0 0 3.805-4.258V57.583"/><path fill="#f0b90b" d="M25.04 109.544a60.65 60.65 0 0 0 63.208 5.001 60.65 60.65 0 0 0 33.13-54.062c0-1.4-.065-2.778-.158-4.152-22.163 33.055-63.085 48.508-96.18 53.213"/></svg>

<svg width="379" height="122" viewBox="0 0 379 122" fill="none" xmlns="http://www.w3.org/2000/svg">
<path d="M158.97 103.608H151.11L149.85 107.328H144.48L152.1 86.268H158.04L165.66 107.328H160.23L158.97 103.608ZM157.65 99.648L155.04 91.938L152.46 99.648H157.65Z" fill="#414549"/>
<path d="M181.957 107.538C180.417 107.538 179.037 107.288 177.817 106.788C176.597 106.288 175.617 105.548 174.877 104.568C174.157 103.588 173.777 102.408 173.737 101.028H179.197C179.277 101.808 179.547 102.408 180.007 102.828C180.467 103.228 181.067 103.428 181.807 103.428C182.567 103.428 183.167 103.258 183.607 102.918C184.047 102.558 184.267 102.068 184.267 101.448C184.267 100.928 184.087 100.498 183.727 100.158C183.387 99.818 182.957 99.538 182.437 99.318C181.937 99.098 181.217 98.848 180.277 98.568C178.917 98.148 177.807 97.728 176.947 97.308C176.087 96.888 175.347 96.268 174.727 95.448C174.107 94.628 173.797 93.558 173.797 92.238C173.797 90.278 174.507 88.748 175.927 87.648C177.347 86.528 179.197 85.968 181.477 85.968C183.797 85.968 185.667 86.528 187.087 87.648C188.507 88.748 189.267 90.288 189.367 92.268H183.817C183.777 91.588 183.527 91.058 183.067 90.678C182.607 90.278 182.017 90.078 181.297 90.078C180.677 90.078 180.177 90.248 179.797 90.588C179.417 90.908 179.227 91.378 179.227 91.998C179.227 92.678 179.547 93.208 180.187 93.588C180.827 93.968 181.827 94.378 183.187 94.818C184.547 95.278 185.647 95.718 186.487 96.138C187.347 96.558 188.087 97.168 188.707 97.968C189.327 98.768 189.637 99.798 189.637 101.058C189.637 102.258 189.327 103.348 188.707 104.328C188.107 105.308 187.227 106.088 186.067 106.668C184.907 107.248 183.537 107.538 181.957 107.538Z" fill="#414549"/>
<path d="M191.774 98.958C191.774 97.218 192.124 95.698 192.824 94.398C193.544 93.098 194.534 92.098 195.794 91.398C197.074 90.698 198.534 90.348 200.174 90.348C202.274 90.348 204.024 90.898 205.424 91.998C206.844 93.098 207.774 94.648 208.214 96.648H202.754C202.294 95.368 201.404 94.728 200.084 94.728C199.144 94.728 198.394 95.098 197.834 95.838C197.274 96.558 196.994 97.598 196.994 98.958C196.994 100.318 197.274 101.368 197.834 102.108C198.394 102.828 199.144 103.188 200.084 103.188C201.404 103.188 202.294 102.548 202.754 101.268H208.214C207.774 103.228 206.844 104.768 205.424 105.888C204.004 107.008 202.254 107.568 200.174 107.568C198.534 107.568 197.074 107.218 195.794 106.518C194.534 105.818 193.544 104.818 192.824 103.518C192.124 102.218 191.774 100.698 191.774 98.958Z" fill="#414549"/>
<path d="M209.938 98.928C209.938 97.208 210.258 95.698 210.898 94.398C211.558 93.098 212.448 92.098 213.568 91.398C214.688 90.698 215.938 90.348 217.318 90.348C218.498 90.348 219.528 90.588 220.408 91.068C221.308 91.548 221.998 92.178 222.478 92.958V90.588H227.608V107.328H222.478V104.958C221.978 105.738 221.278 106.368 220.378 106.848C219.498 107.328 218.468 107.568 217.288 107.568C215.928 107.568 214.688 107.218 213.568 106.518C212.448 105.798 211.558 104.788 210.898 103.488C210.258 102.168 209.938 100.648 209.938 98.928ZM222.478 98.958C222.478 97.678 222.118 96.668 221.398 95.928C220.698 95.188 219.838 94.818 218.818 94.818C217.798 94.818 216.928 95.188 216.208 95.928C215.508 96.648 215.158 97.648 215.158 98.928C215.158 100.208 215.508 101.228 216.208 101.988C216.928 102.728 217.798 103.098 218.818 103.098C219.838 103.098 220.698 102.728 221.398 101.988C222.118 101.248 222.478 100.238 222.478 98.958Z" fill="#414549"/>
<path d="M241.519 90.408C243.479 90.408 245.039 91.048 246.199 92.328C247.379 93.588 247.969 95.328 247.969 97.548V107.328H242.869V98.238C242.869 97.118 242.579 96.248 241.999 95.628C241.419 95.008 240.639 94.698 239.659 94.698C238.679 94.698 237.899 95.008 237.319 95.628C236.739 96.248 236.449 97.118 236.449 98.238V107.328H231.319V90.588H236.449V92.808C236.969 92.068 237.669 91.488 238.549 91.068C239.429 90.628 240.419 90.408 241.519 90.408Z" fill="#414549"/>
<path d="M267.852 107.538C265.872 107.538 264.052 107.078 262.392 106.158C260.752 105.238 259.442 103.958 258.462 102.318C257.502 100.658 257.022 98.798 257.022 96.738C257.022 94.678 257.502 92.828 258.462 91.188C259.442 89.548 260.752 88.268 262.392 87.348C264.052 86.428 265.872 85.968 267.852 85.968C269.832 85.968 271.642 86.428 273.282 87.348C274.942 88.268 276.242 89.548 277.182 91.188C278.142 92.828 278.622 94.678 278.622 96.738C278.622 98.798 278.142 100.658 277.182 102.318C276.222 103.958 274.922 105.238 273.282 106.158C271.642 107.078 269.832 107.538 267.852 107.538ZM267.852 102.858C269.532 102.858 270.872 102.298 271.872 101.178C272.892 100.058 273.402 98.578 273.402 96.738C273.402 94.878 272.892 93.398 271.872 92.298C270.872 91.178 269.532 90.618 267.852 90.618C266.152 90.618 264.792 91.168 263.772 92.268C262.772 93.368 262.272 94.858 262.272 96.738C262.272 98.598 262.772 100.088 263.772 101.208C264.792 102.308 266.152 102.858 267.852 102.858Z" fill="#414549"/>
<path d="M286.606 93.378C287.206 92.458 287.956 91.738 288.856 91.218C289.756 90.678 290.756 90.408 291.856 90.408V95.838H290.446C289.166 95.838 288.206 96.118 287.566 96.678C286.926 97.218 286.606 98.178 286.606 99.558V107.328H281.476V90.588H286.606V93.378Z" fill="#414549"/>
<path d="M296.888 88.848C295.988 88.848 295.248 88.588 294.668 88.068C294.108 87.528 293.828 86.868 293.828 86.088C293.828 85.288 294.108 84.628 294.668 84.108C295.248 83.568 295.988 83.298 296.888 83.298C297.768 83.298 298.488 83.568 299.048 84.108C299.628 84.628 299.918 85.288 299.918 86.088C299.918 86.868 299.628 87.528 299.048 88.068C298.488 88.588 297.768 88.848 296.888 88.848ZM299.438 90.588V107.328H294.308V90.588H299.438Z" fill="#414549"/>
<path d="M309.515 90.348C310.695 90.348 311.725 90.588 312.605 91.068C313.505 91.548 314.195 92.178 314.675 92.958V90.588H319.805V107.298C319.805 108.838 319.495 110.228 318.875 111.468C318.275 112.728 317.345 113.728 316.085 114.468C314.845 115.208 313.295 115.578 311.435 115.578C308.955 115.578 306.945 114.988 305.405 113.808C303.865 112.648 302.985 111.068 302.765 109.068H307.835C307.995 109.708 308.375 110.208 308.975 110.568C309.575 110.948 310.315 111.138 311.195 111.138C312.255 111.138 313.095 110.828 313.715 110.208C314.355 109.608 314.675 108.638 314.675 107.298V104.928C314.175 105.708 313.485 106.348 312.605 106.848C311.725 107.328 310.695 107.568 309.515 107.568C308.135 107.568 306.885 107.218 305.765 106.518C304.645 105.798 303.755 104.788 303.095 103.488C302.455 102.168 302.135 100.648 302.135 98.928C302.135 97.208 302.455 95.698 303.095 94.398C303.755 93.098 304.645 92.098 305.765 91.398C306.885 90.698 308.135 90.348 309.515 90.348ZM314.675 98.958C314.675 97.678 314.315 96.668 313.595 95.928C312.895 95.188 312.035 94.818 311.015 94.818C309.995 94.818 309.125 95.188 308.405 95.928C307.705 96.648 307.355 97.648 307.355 98.928C307.355 100.208 307.705 101.228 308.405 101.988C309.125 102.728 309.995 103.098 311.015 103.098C312.035 103.098 312.895 102.728 313.595 101.988C314.315 101.248 314.675 100.238 314.675 98.958Z" fill="#414549"/>
<path d="M326.097 88.848C325.197 88.848 324.457 88.588 323.877 88.068C323.317 87.528 323.037 86.868 323.037 86.088C323.037 85.288 323.317 84.628 323.877 84.108C324.457 83.568 325.197 83.298 326.097 83.298C326.977 83.298 327.697 83.568 328.257 84.108C328.837 84.628 329.127 85.288 329.127 86.088C329.127 86.868 328.837 87.528 328.257 88.068C327.697 88.588 326.977 88.848 326.097 88.848ZM328.647 90.588V107.328H323.517V90.588H328.647Z" fill="#414549"/>
<path d="M342.564 90.408C344.524 90.408 346.084 91.048 347.244 92.328C348.424 93.588 349.014 95.328 349.014 97.548V107.328H343.914V98.238C343.914 97.118 343.624 96.248 343.044 95.628C342.464 95.008 341.684 94.698 340.704 94.698C339.724 94.698 338.944 95.008 338.364 95.628C337.784 96.248 337.494 97.118 337.494 98.238V107.328H332.364V90.588H337.494V92.808C338.014 92.068 338.714 91.488 339.594 91.068C340.474 90.628 341.464 90.408 342.564 90.408Z" fill="#414549"/>
<path d="M351.559 98.928C351.559 97.208 351.879 95.698 352.519 94.398C353.179 93.098 354.069 92.098 355.189 91.398C356.309 90.698 357.559 90.348 358.939 90.348C360.119 90.348 361.149 90.588 362.029 91.068C362.929 91.548 363.619 92.178 364.099 92.958V90.588H369.229V107.328H364.099V104.958C363.599 105.738 362.899 106.368 361.999 106.848C361.119 107.328 360.089 107.568 358.909 107.568C357.549 107.568 356.309 107.218 355.189 106.518C354.069 105.798 353.179 104.788 352.519 103.488C351.879 102.168 351.559 100.648 351.559 98.928ZM364.099 98.958C364.099 97.678 363.739 96.668 363.019 95.928C362.319 95.188 361.459 94.818 360.439 94.818C359.419 94.818 358.549 95.188 357.829 95.928C357.129 96.648 356.779 97.648 356.779 98.928C356.779 100.208 357.129 101.228 357.829 101.988C358.549 102.728 359.419 103.098 360.439 103.098C361.459 103.098 362.319 102.728 363.019 101.988C363.739 101.248 364.099 100.238 364.099 98.958Z" fill="#414549"/>
<path d="M378.071 85.128V107.328H372.941V85.128H378.071Z" fill="#414549"/>
<path d="M162.679 56.976C158.839 56.976 155.383 56.136 152.311 54.456C149.239 52.728 146.815 50.304 145.039 47.184C143.311 44.064 142.447 40.464 142.447 36.384C142.447 32.304 143.335 28.704 145.111 25.584C146.935 22.464 149.407 20.064 152.527 18.384C155.647 16.656 159.127 15.792 162.967 15.792C166.807 15.792 170.287 16.656 173.407 18.384C176.527 20.064 178.975 22.464 180.751 25.584C182.575 28.704 183.487 32.304 183.487 36.384C183.487 40.464 182.551 44.064 180.679 47.184C178.855 50.304 176.359 52.728 173.191 54.456C170.071 56.136 166.567 56.976 162.679 56.976ZM162.679 48.192C164.503 48.192 166.207 47.76 167.791 46.896C169.423 45.984 170.719 44.64 171.679 42.864C172.639 41.088 173.119 38.928 173.119 36.384C173.119 32.592 172.111 29.688 170.095 27.672C168.127 25.608 165.703 24.576 162.823 24.576C159.943 24.576 157.519 25.608 155.551 27.672C153.631 29.688 152.671 32.592 152.671 36.384C152.671 40.176 153.607 43.104 155.479 45.168C157.399 47.184 159.799 48.192 162.679 48.192Z" fill="black"/>
<path d="M200.961 22.2C202.257 20.376 204.033 18.864 206.289 17.664C208.593 16.416 211.209 15.792 214.137 15.792C217.545 15.792 220.617 16.632 223.353 18.312C226.137 19.992 228.321 22.392 229.905 25.512C231.537 28.584 232.353 32.16 232.353 36.24C232.353 40.32 231.537 43.944 229.905 47.112C228.321 50.232 226.137 52.656 223.353 54.384C220.617 56.112 217.545 56.976 214.137 56.976C211.209 56.976 208.617 56.376 206.361 55.176C204.153 53.976 202.353 52.464 200.961 50.64V75.336H190.881V16.44H200.961V22.2ZM222.057 36.24C222.057 33.84 221.553 31.776 220.545 30.048C219.585 28.272 218.289 26.928 216.657 26.016C215.073 25.104 213.345 24.648 211.473 24.648C209.649 24.648 207.921 25.128 206.289 26.088C204.705 27 203.409 28.344 202.401 30.12C201.441 31.896 200.961 33.984 200.961 36.384C200.961 38.784 201.441 40.872 202.401 42.648C203.409 44.424 204.705 45.792 206.289 46.752C207.921 47.664 209.649 48.12 211.473 48.12C213.345 48.12 215.073 47.64 216.657 46.68C218.289 45.72 219.585 44.352 220.545 42.576C221.553 40.8 222.057 38.688 222.057 36.24Z" fill="black"/>
<path d="M268.19 30.552C271.022 31.08 273.35 32.496 275.174 34.8C276.998 37.104 277.91 39.744 277.91 42.72C277.91 45.408 277.238 47.784 275.894 49.848C274.598 51.864 272.702 53.448 270.206 54.6C267.71 55.752 264.758 56.328 261.35 56.328H239.678V6.072H260.414C263.822 6.072 266.75 6.624 269.198 7.728C271.694 8.832 273.566 10.368 274.814 12.336C276.11 14.304 276.758 16.536 276.758 19.032C276.758 21.96 275.966 24.408 274.382 26.376C272.846 28.344 270.782 29.736 268.19 30.552ZM249.758 26.808H258.974C261.374 26.808 263.222 26.28 264.518 25.224C265.814 24.12 266.462 22.56 266.462 20.544C266.462 18.528 265.814 16.968 264.518 15.864C263.222 14.76 261.374 14.208 258.974 14.208H249.758V26.808ZM259.91 48.12C262.358 48.12 264.254 47.544 265.598 46.392C266.99 45.24 267.686 43.608 267.686 41.496C267.686 39.336 266.966 37.656 265.526 36.456C264.086 35.208 262.142 34.584 259.694 34.584H249.758V48.12H259.91Z" fill="black"/>
<path d="M328.928 56.328H318.848L296.024 21.84V56.328H285.944V6H296.024L318.848 40.56V6H328.928V56.328Z" fill="black"/>
<path d="M367.401 30.552C370.233 31.08 372.561 32.496 374.385 34.8C376.209 37.104 377.121 39.744 377.121 42.72C377.121 45.408 376.449 47.784 375.105 49.848C373.809 51.864 371.913 53.448 369.417 54.6C366.921 55.752 363.969 56.328 360.561 56.328H338.889V6.072H359.625C363.033 6.072 365.961 6.624 368.409 7.728C370.905 8.832 372.777 10.368 374.025 12.336C375.321 14.304 375.969 16.536 375.969 19.032C375.969 21.96 375.177 24.408 373.593 26.376C372.057 28.344 369.993 29.736 367.401 30.552ZM348.969 26.808H358.185C360.585 26.808 362.433 26.28 363.729 25.224C365.025 24.12 365.673 22.56 365.673 20.544C365.673 18.528 365.025 16.968 363.729 15.864C362.433 14.76 360.585 14.208 358.185 14.208H348.969V26.808ZM359.121 48.12C361.569 48.12 363.465 47.544 364.809 46.392C366.201 45.24 366.897 43.608 366.897 41.496C366.897 39.336 366.177 37.656 364.737 36.456C363.297 35.208 361.353 34.584 358.905 34.584H348.969V48.12H359.121Z" fill="black"/>
<path d="M25.2228 57.583C25.2229 56.9056 25.3568 56.2348 25.6169 55.6093C25.877 54.9837 26.258 54.4157 26.7382 53.9378C27.2184 53.4599 27.7883 53.0816 28.4151 52.8246C29.0419 52.5676 29.7133 52.4369 30.3908 52.44L38.9588 52.468C40.3249 52.468 41.6351 53.0107 42.6011 53.9767C43.5671 54.9427 44.1098 56.2529 44.1098 57.619V90.0191C45.0748 89.733 46.3098 89.428 47.6688 89.108C48.6103 88.8865 49.4494 88.3535 50.05 87.5953C50.6506 86.8371 50.9776 85.8983 50.9778 84.931V44.744C50.9778 43.3778 51.5204 42.0675 52.4864 41.1014C53.4524 40.1352 54.7626 39.5923 56.1288 39.592H64.7228C66.089 39.5923 67.3992 40.1352 68.3651 41.1014C69.3311 42.0675 69.8738 43.3778 69.8738 44.744V82.044C69.8738 82.044 72.0238 81.174 74.1168 80.29C74.8945 79.9611 75.5582 79.4104 76.025 78.7067C76.4918 78.003 76.7411 77.1775 76.7418 76.333V31.866C76.7418 30.5001 77.2843 29.1901 78.2501 28.2241C79.2159 27.2581 80.5258 26.7153 81.8918 26.715H90.4768C91.842 26.7164 93.1509 27.2596 94.1158 28.2255C95.0808 29.1914 95.6228 30.5008 95.6228 31.866V68.483C103.066 63.089 110.609 56.601 116.595 48.8C117.463 47.6677 118.038 46.338 118.268 44.9295C118.497 43.521 118.375 42.0776 117.911 40.728C115.14 32.7562 110.735 25.4505 104.979 19.2786C99.2225 13.1067 92.2411 8.20438 84.4813 4.88543C76.7216 1.56649 68.3544 -0.0960273 59.9153 0.00428347C51.4762 0.104594 43.1509 1.96552 35.4723 5.46797C27.7936 8.97042 20.9307 14.0373 15.3226 20.3443C9.71457 26.6513 5.48488 34.0596 2.90423 42.0951C0.323578 50.1305 -0.551199 58.6163 0.33587 67.0093C1.22294 75.4022 3.85232 83.5176 8.05576 90.836C8.7881 92.0985 9.86553 93.1258 11.1615 93.7972C12.4574 94.4685 13.918 94.7561 15.3718 94.626C16.9958 94.483 19.0178 94.281 21.4218 93.999C22.468 93.88 23.434 93.3803 24.1356 92.5951C24.8373 91.8099 25.2257 90.7941 25.2268 89.741V57.583" fill="#12161C"/>
<path d="M25.0391 109.544C34.0883 116.127 44.7823 120.079 55.9379 120.961C67.0934 121.844 78.2758 119.623 88.2476 114.545C98.2195 109.467 106.592 101.729 112.439 92.1878C118.286 82.6465 121.38 71.6735 121.378 60.4831C121.378 59.0831 121.313 57.7051 121.22 56.3311C99.057 89.3861 58.1351 104.839 25.0391 109.544Z" fill="#F0B90B"/>
</svg>
